!!!!SEGMENT: pl-wumfc--n50533_moniuszko-stanislaw--gdyby-kto-mnie-kochal-szczerze.krn
!!!cenid: 18xx:4081
!!!COM: Moniuszko, Stanisław
!!!COM-rismID: pe30008351
!!!CDT: 1819/05/05-1872/06/04
!!!CNT: Polish
!!!OTL: Gdyby kto mnie kochał szczerze
!!!PDT:
!!!AGN:
!!!YEC: Copyright 2022 Narodowy Instytut Fryderyka Chopina (https://polishscores.org)
!!!YEM: License CC-BY-4.0 (https://creativecommons.org/licenses/by/4.0)
!!!SMS-siglum: PL-Wumfc
!!!SMS-shelfmark: N50533
!!!SMS-shelfwork: W
!!!SMS-variant:
!!!SMS-altvar:
!!!NIFC-rismSourceID: 1001165483
!!!NIFC-rismChildID: 1001165483
!!!NIFC-islandoraID: pl-wumfc:6751
!!!URL-pdf-islandora: https://repozytorium.nifc.pl/islandora/object/pl-wumfc%3A6751/datastream/PDF/view
!!!URL-scan: https://polish.musicsources.pl/pl/lokalizacje/galeria/druki-muzyczne/12549 @EN{Scan on Polish Music Sources Website} @PL{Skany w portalu Dziedzictwo Muzyki Polskiej w otwartym dostępie}
!!!IIIF:
!!!ONB-nifc:
!!!AIN: 1 piano 1 soprn
!!!key:
**kern	**kern	**dynam	**kern	**text
*part2	*part2	*	*part1	*
*staff3	*staff2	*	*staff1	*
*I"PIANO.	*I"PIANO.	*	*I"ŚPIEW.	*v:1
*Ipiano	*Ipiano	*	*Isoprn	*
*ICklav	*ICklav	*	*ICvox	*
*IGacmp	*IGacmp	*	*IGsolo	*
*>[A,B,C,B,C,B,C,B,C,B]	*>[A,B,C,B,C,B,C,B,C,B]	*	*>[A,B,C,B,C,B,C,B,C,B]	*
*>A	*>A	*	*>A	*
*clefF4	*clefG2	*	*clefG2	*
*k[f#]	*k[f#]	*	*k[f#]	*
*G:	*G:	*	*G:	*
*M3/4	*M3/4	*	*M3/4	*
!!LO:TX:B:a:t=Scherzando.
8r	[8dd\	.	8r	.
!LO:TX:i:b:t=[segno]	!LO:TX:i:a:t=[segno]	!	!LO:TX:i:a:t=[segno]	!
=1||	=1||	=1||	=1||	=1||
*>B	*>B	*	*>B	*
4GG/	8dd\L]	.	2.r	.
.	16r	.	.	.
.	(16ee\Jk	.	.	.
4r	[2a/)	.	.	.
(4D\ 4F# 4c	.	.	.	.
=2	=2	=2	=2	=2
4GG/)	8a/L]	.	2.r	.
.	16r	.	.	.
.	(16b/Jk	.	.	.
4r	(2d/)	.	.	.
(4D\ 4G 4B	.	.	.	.
=3	=3	=3	=3	=3
4GG/)	8d/L)	.	2.r	.
.	8d#X/	.	.	.
4r	8f#/	.	.	.
.	8eT/	.	.	.
(4D\ 4F# 4A	8dn/	.	.	.
.	8c/J	.	.	.
=4	=4	=4	=4	=4
4GG/)	(<8B/L	.	2.r	.
.	8d/	.	.	.
4r	8g/	.	.	.
.	8b/J	.	.	.
(4G\ 4B	[4dd\)	.	.	.
!!LO:LB:g=original
=5	=5	=5	=5	=5
!	!LO:TUP:a	!	!	!
4GG/)	20dd\LL]	.	2.r	.
.	20dd#X\	.	.	.
.	20ff#\	.	.	.
.	20ee\	.	.	.
.	20cc\JJ	.	.	.
4r	[2a/	.	.	.
(4D\ 4F# 4c	.	.	.	.
=6	=6	=6	=6	=6
!	!LO:TUP:b	!	!	!
4GG/)	28a/LL]	.	2.r	.
.	28a#X/	.	.	.
.	28cc#X/	.	.	.
.	28dd/	.	.	.
.	28b/	.	.	.
.	28g/	.	.	.
.	28e/JJ	.	.	.
4r	[2d/	.	.	.
(4G\ 4B	.	.	.	.
=7	=7	=7	=7	=7
*^	*	*	*	*
4D\)	2ryy	(8d/L]	.	2.r	.
.	.	8d#X/J	.	.	.
4r	.	12e/L	.	.	.
.	.	12e#X/	.	.	.
.	.	12f#/J	.	.	.
(<8.d/L	4D\ 4F#	8.b/L	.	.	.
16c/Jk	.	16a/Jk	.	.	.
*v	*v	*	*	*	*
=8	=8	=8	=8	=8
!	!LO:TX:i:b:t=Fine.	!	!	!
4G\) 4B	2.g;/)	.	2.r;	.
4GG/	.	.	.	.
4r;	.	.	.	.
=9	=9	=9	=9	=9
*>C	*>C	*	*>C	*
2G\	4r	.	8d/	Gdy-
.	.	.	8g/	-by
.	8d/ 8g 8b	.	4b\	kto
.	8r	.	.	.
4C/	4e^/ 4a 4cc	.	4cc\	mnie
!!LO:LB:g=original
=10	=10	=10	=10	=10
.	.	.	(8qb/	.
2D\	4r	.	8.a/)	ko-
.	.	.	16g#X/	-chał
.	8d/ 8f# 8a	.	4a/	szcze-
.	8r	.	.	.
4D\	4d^/ 4g 4b	.	4b\	-rze
=11	=11	=11	=11	=11
2D\	4r	.	8cc\	by-
.	.	.	8cc#X\	-ła-
.	(>4d/ 4f# 4dd	.	4.dd\	-bym
4D^^\ 4A	4d/) 4f# 4cc	.	.	.
.	.	.	8ccn\	dla
=12	=12	=12	=12	=12
(2G\	4r	.	8b\	nie-
.	.	.	8a#X/	-go
.	((4d/ 4g 4b	.	4b\	tkli-
4GG/)	4B/)) 4g	.	4g/	-wą,
=13	=13	=13	=13	=13
*	*^	*	*	*
((4BB\ 4A	(8f#/L	4d#X\	.	8f#/	bo
.	8b/J)	.	.	8b/	gdy
8E\)) 8G	2g/	2e\	.	4.g/	ni-
8r	.	.	.	.	.
8EE/	.	.	.	.	.
8r	.	.	.	8e/	-ko-
=14	=14	=14	=14	=14	=14
((4BB\ 4A	(8f#/L	4d#X\	.	8f#/	-mu
.	8b/J)	.	.	8b/	nie
8E\)) 8G	2g/	2e\	.	4.g/	wie-
8r	.	.	.	.	.
8EE/	.	.	.	.	.
8r	.	.	.	8e/	-rzę
*	*v	*v	*	*	*
=15	=15	=15	=15	=15
!	!LO:TX:i:a:t=risoluto	!	!	!
8A\L 8c	8e/L 8f#	.	8f#/	jak
8G\J 8B	8e/J 8g	.	8g/	że
8F#\ 8A	8e/ 8a	.	4a/	mam
8r	8r	.	.	.
4BB\ 4B	4d#X/ 4f# 4b	sf	4b/	zo-
!!LO:LB:g=original
=16	=16	=16	=16	=16
.	.	.	8qa/	.
2E\	4r	.	8.g/	-stać
.	.	.	16f#/	szczę-
.	4B/ 4e 4g	.	4.g/	-śli-
4C\ [4G	4c/ 4e	.	.	.
.	.	.	8e/	-wą?
=17	=17	=17	=17	=17
*	*^	*	*	*
!	!	!	!	!LO:TX:i:a:t=più lento	!
2GG/ 2G]	8d/L	2B\	.	8d/	Gdy-
!	!LO:TX:i:b:t=dolce	!	!	!	!
.	8g/J	.	.	8g/	-by
.	4b/	.	.	4.b\	kto
4BB/	4g#X/	4d\ 4fn	.	.	.
.	.	.	.	8b-X\	mnie
*	*v	*v	*	*	*
=18	=18	=18	=18	=18
2C/	4r	.	8g#X/	ko-
.	.	.	8a/	-chał
.	4e/ 4a	.	4.ff#\	szcze-
4C/	4e/ 4gn 4a#X	.	.	.
.	.	.	8ee\	-rze!
=19	=19	=19	=19	=19
*	*^	*	*	*
!	!	!	!	!LO:TX:i:a:t=ritard.	!
4D\	8d/L 8b	2ryy	.	8dd\	Gdy-
.	8B/J 8g#X	.	.	8cc#X\	-by
4D\	4c/ 4a	.	.	8ccn\	kto
.	.	.	.	8a/	mnie
4D\	8e/L	4c\	.	8e/	ko-
.	8f#/J	.	.	8f#/	-chał
*	*v	*v	*	*	*
=20	=20	=20	=20	=20
!LO:TX:i:b:t=D.S. al Fine.	!	!	!	!
8GG/	4r	.	4a/	szcze-
8r	.	.	.	.
4GG/ 4D 4G	4B/ 4g	sf	4g/	-rze!!
4r	8r	.	4r	.
.	[8dd\	.	.	.
!LO:TX:i:b:t=[segno]	!LO:TX:i:a:t=[segno]	!	!LO:TX:i:a:t=[segno]	!
==	==	==	==	==
*-	*-	*-	*-	*-
!!!system-decoration: (p1){(p2)}
!!!RDF**kern: > = above
!!!RDF**kern: < = below
!!!ENC: Andrzej Gręziak
!!!END: 2022-08-19
!!!ENC: Kamil Watkowski
!!!END: 2022-09-24
